svgs/kanji_study.svg

<svg xmlns="http://www.w3.org/2000/svg" viewBox="0 0 192 192"><path d="M73.754 22.333c-1.087.537-1.012 1.963.2 3.963.675 1.125.788 1.6.475 2.262-.337.75-2.262 2.563-5.138 4.851-3.262 2.612-5.225 4.037-9.1 6.638-8.226 5.5-16.301 9.963-26.002 14.363-1.788.8-3.625 1.688-4.075 1.95-1.363.8-1.863 1.563-1.488 2.263.112.2.275.238 1 .238 3.65 0 14.626-2.638 24.464-5.888 4.451-1.476 5.413-1.688 5.963-1.313.6.388.613.5.663 10.976l.062 9.838-.425.2c-.462.213-3.1.95-14.726 4.125-16.814 4.601-27.564 7.613-28.652 8.038-.375.15-.975.888-.975 1.213 0 .113.15.488.325.813.263.475.488.687 1.038.975 1.6.85 4.712 1.725 6.575 1.862 1.788.113 2.225.013 11.438-2.637 2.301-.675 8.151-2.276 13.001-3.576 4.851-1.3 9.001-2.425 9.226-2.487.625-.188.663.125.138 1.112-.45.825-10.051 15.914-13.901 21.814-5.876 9.051-9.789 14.151-20.139 26.315-5.738 6.738-7.701 9.263-7.701 9.95 0 .325.45.738.913.851 1.05.25 2.075-.438 7.4-4.963 6.776-5.763 9.463-8.263 18.676-17.402 7.576-7.513 12.576-12.651 15.377-15.788 1.062-1.175 2-2.15 2.087-2.15.225 0 .35 2.187.25 4.362-.45 9.614-1.625 28.265-2.15 33.815-.25 2.663-.612 5.426-.975 7.463-.575 3.113-.625 3.663-.625 6.238-.013 3.176.162 4.276 1.05 6.813 1.538 4.363 4.088 8.038 6.601 9.514.6.35 2.1.925 2.425.925.412 0 1.325-.488 1.775-.95.762-.788 1.062-1.576 1.262-3.313.35-3.163.588-12.476.813-31.49.363-31.365.425-34.44.688-34.878.137-.237.3-.125 1.462.976 1.488 1.387 8.013 7.188 10.788 9.588 3.426 2.962 5.613 4.275 7.676 4.625 2 .35 3.388-.287 4.288-1.975.712-1.325.05-6.826-1.1-9.126-1.338-2.675-3.763-5.688-5.101-6.325-.425-.213-1.1-.325-3.087-.513-6.926-.662-14.139-1.912-14.776-2.562-.3-.3-.363-1.713-.213-5.126.075-1.787.188-4.688.238-6.463.112-3.613.162-3.8 1.087-4.313 1.663-.925 6.688-1.65 15.751-2.287 6.726-.463 9.313-.775 11.539-1.388 2.85-.775 3.712-1.912 3.075-4.075-.513-1.713-2.15-2.863-5.876-4.125-3.037-1.026-5.737-1.413-9.9-1.413h-2.263l-1.763 1.175c-3.762 2.525-6.45 3.613-9.388 3.788-1.825.1-1.8.125-1.712-2.013.037-.9.212-2.988.387-4.638.488-4.625.65-7.675.475-8.525-.337-1.638-1.412-3.376-3.288-5.351-.687-.725-1.237-1.387-1.2-1.475.025-.087 1.613-.812 3.526-1.625a662.77 662.77 0 0 0 9.05-3.913c3.063-1.35 6.113-2.662 6.763-2.912 1.55-.6 1.713-.688 1.963-1.175.25-.488.275-1.813.037-2.901-.337-1.625-1.712-3.55-4.387-6.125-4.113-3.938-6.826-5.776-9.789-6.626-1.287-.362-1.487-.375-2.075-.087Z"/><path d="M157.51 74.362c-.512.125-1.837.575-2.937.987-1.1.413-2.776.975-3.713 1.25-1.95.563-8.388 2.075-16.101 3.763-17.352 3.813-25.652 5.5-26.952 5.5-.65 0-2.013-.675-4.426-2.187a55.07 55.07 0 0 0-2.625-1.538c-.975-.5-1.1-.537-1.687-.462-1.326.162-2.701 1.125-3.251 2.25-.125.275-.262.837-.287 1.25-.05.913.137 1.313 1.525 3.175 1.475 1.988 1.888 2.763 2.313 4.388.525 2.025 2.012 8.826 4.65 21.252 2.475 11.7 3.213 15.051 3.613 16.188 1.275 3.713 4 6.563 6.725 7.063.888.15 1.8.025 2.338-.325.475-.312 1.125-1.475 1.612-2.913.488-1.45.726-1.762 1.626-2.187 1.975-.938 9.188-2.525 14.238-3.138 4.488-.55 10.676-.712 16.289-.437 6.15.3 9.038.375 10.513.262 2.263-.175 2.713-.512 2.713-2-.013-1.438-.838-3.063-2.45-4.838-.538-.575-.975-1.1-.975-1.163 0-.525 8.175-23.351 10.313-28.789.837-2.125 1.112-2.5 3.45-4.538 2.025-1.775 2.3-2.338 1.688-3.538-.363-.7-.838-1.012-6.638-4.337-6.788-3.888-9.389-5.201-10.314-5.176-.175 0-.737.113-1.25.238Zm-4.162 10.013c.462.175.537.312.537 1.012 0 1.413-1.15 8.326-3.825 22.852-1.75 9.526-1.913 10.276-2.175 10.513-.25.225-2.163.613-8.751 1.788-10.251 1.85-17.514 3.038-19.089 3.15-1.588.113-1.5.238-2.4-3.388-2.5-10.113-6.376-27.339-6.226-27.727.088-.225.676-.375 7.151-1.712 6.225-1.3 29.215-5.901 31.44-6.301 1.875-.337 2.812-.387 3.338-.187Z"/></svg>

<svg
    xmlns="http://www.w3.org/2000/svg"
    viewBox="0 0 192 192"
    id="vector">
    <path
        id="path"
        d="M 73.754 22.333 C 72.667 22.87 72.742 24.296 73.954 26.296 C 74.629 27.421 74.742 27.896 74.429 28.558 C 74.092 29.308 72.167 31.121 69.291 33.409 C 66.029 36.021 64.066 37.446 60.191 40.047 C 51.965 45.547 43.89 50.01 34.189 54.41 C 32.401 55.21 30.564 56.098 30.114 56.36 C 28.751 57.16 28.251 57.923 28.626 58.623 C 28.738 58.823 28.901 58.861 29.626 58.861 C 33.276 58.861 44.252 56.223 54.09 52.973 C 58.541 51.497 59.503 51.285 60.053 51.66 C 60.653 52.048 60.666 52.16 60.716 62.636 L 60.778 72.474 L 60.353 72.674 C 59.891 72.887 57.253 73.624 45.627 76.799 C 28.813 81.4 18.063 84.412 16.975 84.837 C 16.6 84.987 16 85.725 16 86.05 C 16 86.163 16.15 86.538 16.325 86.863 C 16.588 87.338 16.813 87.55 17.363 87.838 C 18.963 88.688 22.075 89.563 23.938 89.7 C 25.726 89.813 26.163 89.713 35.376 87.063 C 37.677 86.388 43.527 84.787 48.377 83.487 C 53.228 82.187 57.378 81.062 57.603 81 C 58.228 80.812 58.266 81.125 57.741 82.112 C 57.291 82.937 47.69 98.026 43.84 103.926 C 37.964 112.977 34.051 118.077 23.701 130.241 C 17.963 136.979 16 139.504 16 140.191 C 16 140.516 16.45 140.929 16.913 141.042 C 17.963 141.292 18.988 140.604 24.313 136.079 C 31.089 130.316 33.776 127.816 42.989 118.677 C 50.565 111.164 55.565 106.026 58.366 102.889 C 59.428 101.714 60.366 100.739 60.453 100.739 C 60.678 100.739 60.803 102.926 60.703 105.101 C 60.253 114.715 59.078 133.366 58.553 138.916 C 58.303 141.579 57.941 144.342 57.578 146.379 C 57.003 149.492 56.953 150.042 56.953 152.617 C 56.94 155.793 57.115 156.893 58.003 159.43 C 59.541 163.793 62.091 167.468 64.604 168.944 C 65.204 169.294 66.704 169.869 67.029 169.869 C 67.441 169.869 68.354 169.381 68.804 168.919 C 69.566 168.131 69.866 167.343 70.066 165.606 C 70.416 162.443 70.654 153.13 70.879 134.116 C 71.242 102.751 71.304 99.676 71.567 99.238 C 71.704 99.001 71.867 99.113 73.029 100.214 C 74.517 101.601 81.042 107.402 83.817 109.802 C 87.243 112.764 89.43 114.077 91.493 114.427 C 93.493 114.777 94.881 114.14 95.781 112.452 C 96.493 111.127 95.831 105.626 94.681 103.326 C 93.343 100.651 90.918 97.638 89.58 97.001 C 89.155 96.788 88.48 96.676 86.493 96.488 C 79.567 95.826 72.354 94.576 71.717 93.926 C 71.417 93.626 71.354 92.213 71.504 88.8 C 71.579 87.013 71.692 84.112 71.742 82.337 C 71.854 78.724 71.904 78.537 72.829 78.024 C 74.492 77.099 79.517 76.374 88.58 75.737 C 95.306 75.274 97.893 74.962 100.119 74.349 C 102.969 73.574 103.831 72.437 103.194 70.274 C 102.681 68.561 101.044 67.411 97.318 66.149 C 94.281 65.123 91.581 64.736 87.418 64.736 L 85.155 64.736 L 83.392 65.911 C 79.63 68.436 76.942 69.524 74.004 69.699 C 72.179 69.799 72.204 69.824 72.292 67.686 C 72.329 66.786 72.504 64.698 72.679 63.048 C 73.167 58.423 73.329 55.373 73.154 54.523 C 72.817 52.885 71.742 51.147 69.866 49.172 C 69.179 48.447 68.629 47.785 68.666 47.697 C 68.691 47.61 70.279 46.885 72.192 46.072 C 74.104 45.272 78.18 43.509 81.242 42.159 C 84.305 40.809 87.355 39.497 88.005 39.247 C 89.555 38.647 89.718 38.559 89.968 38.072 C 90.218 37.584 90.243 36.259 90.005 35.171 C 89.668 33.546 88.293 31.621 85.618 29.046 C 81.505 25.108 78.792 23.27 75.829 22.42 C 74.542 22.058 74.342 22.045 73.754 22.333 Z"
        fill="#000000"
        stroke-width="12"/>
    <path
        id="path_1"
        d="M 157.51 74.362 C 156.998 74.487 155.673 74.937 154.573 75.349 C 153.473 75.762 151.797 76.324 150.86 76.599 C 148.91 77.162 142.472 78.674 134.759 80.362 C 117.407 84.175 109.107 85.862 107.807 85.862 C 107.157 85.862 105.794 85.187 103.381 83.675 C 102.519 83.137 101.344 82.45 100.756 82.137 C 99.781 81.637 99.656 81.6 99.069 81.675 C 97.743 81.837 96.368 82.8 95.818 83.925 C 95.693 84.2 95.556 84.762 95.531 85.175 C 95.481 86.088 95.668 86.488 97.056 88.35 C 98.531 90.338 98.944 91.113 99.369 92.738 C 99.894 94.763 101.381 101.564 104.019 113.99 C 106.494 125.69 107.232 129.041 107.632 130.178 C 108.907 133.891 111.632 136.741 114.357 137.241 C 115.245 137.391 116.157 137.266 116.695 136.916 C 117.17 136.604 117.82 135.441 118.307 134.003 C 118.795 132.553 119.033 132.241 119.933 131.816 C 121.908 130.878 129.121 129.291 134.171 128.678 C 138.659 128.128 144.847 127.966 150.46 128.241 C 156.61 128.541 159.498 128.616 160.973 128.503 C 163.236 128.328 163.686 127.991 163.686 126.503 C 163.673 125.065 162.848 123.44 161.236 121.665 C 160.698 121.09 160.261 120.565 160.261 120.502 C 160.261 119.977 168.436 97.151 170.574 91.713 C 171.411 89.588 171.686 89.213 174.024 87.175 C 176.049 85.4 176.324 84.837 175.712 83.637 C 175.349 82.937 174.874 82.625 169.074 79.3 C 162.286 75.412 159.685 74.099 158.76 74.124 C 158.585 74.124 158.023 74.237 157.51 74.362 Z M 153.348 84.375 C 153.81 84.55 153.885 84.687 153.885 85.387 C 153.885 86.8 152.735 93.713 150.06 108.239 C 148.31 117.765 148.147 118.515 147.885 118.752 C 147.635 118.977 145.722 119.365 139.134 120.54 C 128.883 122.39 121.62 123.578 120.045 123.69 C 118.457 123.803 118.545 123.928 117.645 120.302 C 115.145 110.189 111.269 92.963 111.419 92.575 C 111.507 92.35 112.095 92.2 118.57 90.863 C 124.795 89.563 147.785 84.962 150.01 84.562 C 151.885 84.225 152.822 84.175 153.348 84.375 Z"
        fill="#000000"
        stroke-width="12"/>
</svg>
